X:610
T: John Cronin's #1
D: The Monks of the Screw
S: M.O'Keeffe via Paul de Grae
R: polka
M: 2/4
L: 1/8
K: D
DF/A/ df|ed B2|AB/A/ FA|BA FE|
DF/A/ df|ed B2|AF GE|D2 D2 :|
fg/f/ ed|Bd A2|f/g/f/e/ df|e2 e2|
fg/f/ ed|Bd AG|FA GE|D2 D2 :|
